src/images/svg/markets/forex-new.svg

<svg width="48" height="48" viewBox="0 0 48 48" fill="none" xmlns="http://www.w3.org/2000/svg">
<path fill-rule="evenodd" clip-rule="evenodd" d="M39 0C43.9706 0 48 4.0294 48 8.99999V39C48 43.9706 43.9706 48 39 48H8.99999C4.0294 48 0 43.9706 0 39V8.99999C0 4.0294 4.0294 0 8.99999 0H39Z" fill="#33658A"/>
<path fill-rule="evenodd" clip-rule="evenodd" d="M7.5 12H10.5H13.5H24V18H13.5V22.5H21V27H13.5V36H7.5V12Z" fill="white"/>
<path fill-rule="evenodd" clip-rule="evenodd" d="M19.5 12L26.25 23.25L19.5 36H25.5L30 28.5L34.5 36H40.5L33.75 23.25L40.5 12H33.75L30 18L26.25 12H19.5Z" fill="white"/>
</svg>

<svg width="48" height="48" fill="none" xmlns="http://www.w3.org/2000/svg"><path fill-rule="evenodd" clip-rule="evenodd" d="M39 0a9 9 0 0 1 9 9v30a9 9 0 0 1-9 9H9a9 9 0 0 1-9-9V9a9 9 0 0 1 9-9h30Z" fill="#33658A"/><path fill-rule="evenodd" clip-rule="evenodd" d="M7.5 12H24v6H13.5v4.5H21V27h-7.5v9h-6V12Z" fill="#fff"/><path fill-rule="evenodd" clip-rule="evenodd" d="m19.5 12 6.75 11.25L19.5 36h6l4.5-7.5 4.5 7.5h6l-6.75-12.75L40.5 12h-6.75L30 18l-3.75-6H19.5Z" fill="#fff"/></svg>
